X:15
T:Welch Dance. Tho24CDs1792.15, The
M:6/8
L:1/8
Q:3/8=120
C:"87"
B:Thompson 24 CDs 1792
Z:Village Music Project, Chris Partington, 1999 & 2017
W:Cast off 2 Cu:,up again .| change sides & back again :| Lead down the middle
W:up again & cast off :|. Right & left :|
K:D
|:a/g/|f2d dcd|B2B Bcd|BAG FED|A2AA2a/g/|
f2d dcd|B2B Bcd|BAG FGE|D3-!fine!D2:|
D/E/|F2F FED|A2A ABc|def Bed|cBcA2D/E/|
F2F FED|A2A Bcd|cea cdB|!D.C.!A3-A2|]

